X: 4576
T: Bottle Bank, The
R: hornpipe
M: 4/4
K: Gminor
f>e|d>^cd>B =c>eA>c|B>AB>c B>dc>B|
A>BG>A F>GE>G|(3FGF (3EDC B,2 f>e|
d>^cd>B =c>eA>c|B>AB>c B2 F>E|
D>FB>d E>Gc>e|g>f=e>f B2||
FD|B,>DF>B d>BA>B|C>EG>c e>cA>c|
B,>DF>B d>BA>B|(3cdB (3ABG (3FGF (3EDC|
B,>DF>B d>BA>B|C>EG>c e>c=B>c|
g>f=e>f g>f=e>f|d2 B2 B4||

